_assets/images/gallery/s05e11-01.svg

<svg xmlns="http://www.w3.org/2000/svg" width="500" height="550" viewBox="0 0 500 550"><path d="M372.14 291.56c2.7 39.16 16.1 98.17-.58 115.7-3.4 9.84.28 24.17-.59 33.2-1 10.07 7.53 26-7.85 27.07-42 21-191.64 7.79-231.12-.83-5.23.59-5.68.27-6.62-4.83-1.35-11.26 1.94-18.53.53-29.31-3-22.87-2.27-46.84-2.16-69.75.11-24.4 1.2-47.39.06-71.78-1.42 2.83-2.94 5.6-4.29 8.46-2.37 10.67-17.5 9.3-11.81 16.18 11.11 7.95 6.41 21.38 5.15 32.56-.25 3.15-1.35 6.27-.37 9.58.51 8.44-3.19 16.94-4.38 25.31-1.5 8-2.61 15.83-1.54 23.93a5.1 5.1 0 01-1.13 3.3c-5.71 6.28-7.75 14-9.19 22.06-.57 3.18-.61 3-3.74 2-12.38-3.52-26.09-4.38-38.6-1.18-1.39.34-2.11 0-2.41-1.47-2-7.76-2.18-16.67-8.49-22.43a6.62 6.62 0 01-1.33-3.22A144.46 144.46 0 0139 372.86c-1.91-63 2.6-126.93 26.19-186 13.61-35.43 24.56-73.32 48.07-103.67 27.32-18.2 60-23.76 90.46-34.78a3.16 3.16 0 012.72.43c5 5.55 11.46 8.41 18.56 9.67 19.19 2.43 41.29 5.55 58.65-4.88 2.85-1.27 4.2-6.53 7.87-5C309.19 55 327.93 59 345.83 64.93c0 0 14.78 2 20.78 4.81 5 2.33 12.31 10.47 12.31 10.47 15.94 14.59 21.63 38 30.45 57.21 27.81 67.48 58 137.39 51.05 212.08-1.19 18.65-.23 37.45-3.28 55.95-.49 4.66-5.21 7.1-5.56 11.78-1.22 5.28-2.08 10.65-2.91 16-.4 2.6-.41 2.83-3.08 2.33-12.48-2.66-25.26-5.49-37.8-1.58-8.34-.15-8.13-15.56-11.44-21.4-6.28-7.37-3.61-9-5.33-17.64-.9-9.7-4.68-20.27.79-29.26 2-3.53 1.86-7.05.51-10.66-4.9-11.28-7.4-23.41-10.45-35.29-1.07-4.3-1.31-8.49 1.61-12.34 1.51-7.23-10.43-8.68-10.93-15.93z" fill="#262521" stroke="#262521" stroke-linecap="round" stroke-linejoin="round" stroke-width="3"/><path d="M267.81 394.13c-62.34 17.76-181.76-275.41-179-293.53 24-26.5 94-45.38 94-45.38s7.16-9.46 20.83-6.82" fill="#262521" stroke="#262521" stroke-linecap="round" stroke-linejoin="round" stroke-width="3"/><path d="M267.81 394.13c-54.17 15.43-151.44-203.91-174.19-273.56m167.54 268.36s43 33.83 104.45 19.86M128 416.67s90.48-11.48 97.87-43.53m-95.29 79.49s140.33 4.37 162.51-47.57m-38.93-11.5s-31.2 26.17-85.72 23.11m110.43-17.37s1 37.63-124.06 46.72m25.9-387.52S161.17 86.1 156 110.56m33.2-57.3s-15.2 67.33-8.49 122.12m18.4-103.33s9.39 155.57 46.61 251.36M192.73 64.89s60.73 72.64 119.53 72.25M215.3 72.05s59.64 40.49 114.48 32.85m-48.06-32.85l60.33-6.16m4.3 101.9s-40.42-4.45-53.26-8.33m53.26 15.92s-30-1.31-42.77 0m46.34 6.05s-39.54-2-56.83 6.91m56.83 11.6S334.41 317.41 306.29 348M124.07 197.73s2.91 27.39 4 43.93m224.39-21.96s-11.79 142.38-20.08 157.66" fill="none" stroke="#636363" stroke-linecap="round" stroke-linejoin="round"/></svg>

<svg xmlns="http://www.w3.org/2000/svg" width="500" height="550" viewBox="0 0 500 550"><path d="M372.14 291.56c2.7 39.16 16.1 98.17-.58 115.7-3.4 9.84.28 24.17-.59 33.2-1 10.07 7.53 26-7.85 27.07-42 21-191.64 7.79-231.12-.83-5.23.59-5.68.27-6.62-4.83-1.35-11.26 1.94-18.53.53-29.31-3-22.87-2.27-46.84-2.16-69.75.11-24.4 1.2-47.39.06-71.78-1.42 2.83-2.94 5.6-4.29 8.46-2.37 10.67-17.5 9.3-11.81 16.18 11.11 7.95 6.41 21.38 5.15 32.56-.25 3.15-1.35 6.27-.37 9.58.51 8.44-3.19 16.94-4.38 25.31-1.5 8-2.61 15.83-1.54 23.93a5.1 5.1 0 01-1.13 3.3c-5.71 6.28-7.75 14-9.19 22.06-.57 3.18-.61 3-3.74 2-12.38-3.52-26.09-4.38-38.6-1.18-1.39.34-2.11 0-2.41-1.47-2-7.76-2.18-16.67-8.49-22.43a6.62 6.62 0 01-1.33-3.22A144.46 144.46 0 0139 372.86c-1.91-63 2.6-126.93 26.19-186 13.61-35.43 24.56-73.32 48.07-103.67 27.32-18.2 60-23.76 90.46-34.78a3.16 3.16 0 012.72.43c5 5.55 11.46 8.41 18.56 9.67 19.19 2.43 41.29 5.55 58.65-4.88 2.85-1.27 4.2-6.53 7.87-5C309.19 55 327.93 59 345.83 64.93c0 0 14.78 2 20.78 4.81 5 2.33 12.31 10.47 12.31 10.47 15.94 14.59 21.63 38 30.45 57.21 27.81 67.48 58 137.39 51.05 212.08-1.19 18.65-.23 37.45-3.28 55.95-.49 4.66-5.21 7.1-5.56 11.78-1.22 5.28-2.08 10.65-2.91 16-.4 2.6-.41 2.83-3.08 2.33-12.48-2.66-25.26-5.49-37.8-1.58-8.34-.15-8.13-15.56-11.44-21.4-6.28-7.37-3.61-9-5.33-17.64-.9-9.7-4.68-20.27.79-29.26 2-3.53 1.86-7.05.51-10.66-4.9-11.28-7.4-23.41-10.45-35.29-1.07-4.3-1.31-8.49 1.61-12.34 1.51-7.23-10.43-8.68-10.93-15.93z" fill="#262521" stroke="#262521" stroke-linecap="round" stroke-linejoin="round" stroke-width="3"/><path d="M267.81 394.13c-62.34 17.76-181.76-275.41-179-293.53 24-26.5 94-45.38 94-45.38s7.16-9.46 20.83-6.82" fill="#262521" stroke="#262521" stroke-linecap="round" stroke-linejoin="round" stroke-width="3"/><path d="M267.81 394.13c-54.17 15.43-151.44-203.91-174.19-273.56M261.16 388.93s43 33.83 104.45 19.86M128 416.67s90.48-11.48 97.87-43.53M130.58 452.63s140.33 4.37 162.51-47.57M254.16 393.56s-31.2 26.17-85.72 23.11M278.87 399.3s1 37.63-124.06 46.72M180.71 58.5S161.17 86.1 156 110.56M189.2 53.26s-15.2 67.33-8.49 122.12M199.11 72.05s9.39 155.57 46.61 251.36M192.73 64.89s60.73 72.64 119.53 72.25M215.3 72.05s59.64 40.49 114.48 32.85M281.72 72.05l60.33-6.16M346.35 167.79s-40.42-4.45-53.26-8.33M346.35 175.38s-30-1.31-42.77 0M349.92 181.43s-39.54-2-56.83 6.91M349.92 199.94S334.41 317.41 306.29 348M124.07 197.73s2.91 27.39 4 43.93M352.46 219.7s-11.79 142.38-20.08 157.66" fill="none" stroke="#636363" stroke-linecap="round" stroke-linejoin="round"/></svg>
